X: 7989
T:Vall\aa{}t fr J\"amtland 
R:Vall\aa{}t
O:Sweden
M:4/4
K:Dm
DF | \
A2A2B2BA | G4F2FA | c2c2d2dc | A4G2AB |\
c2c2d2dc | A3GA2DE | F2F2G2E2 | D6 :|
|:\
DE |\
M:3/4
F4ED | E4FE |\
M:4/4
D2F2A2cA |\
M:3/4
G4FA |\
M:4/4
c2c2d2dc | A3GA2DE | F2F2G2E2 | D6 :|
